packages/core/src/svgs/networks/mono/tron.svg

<svg width="24" height="24" viewBox="0 0 24 24" fill="none" xmlns="http://www.w3.org/2000/svg">
<path fill-rule="evenodd" clip-rule="evenodd" d="M3.57731 2.20643C3.65327 2.12266 3.75043 2.06092 3.85853 2.02772C3.96663 1.99452 4.08169 1.99107 4.19158 2.01776L17.4175 5.25587C17.497 5.27432 17.5718 5.30919 17.6368 5.35825L20.328 7.321C20.4588 7.41715 20.5476 7.5602 20.5754 7.72023C20.6032 7.88028 20.568 8.04482 20.4771 8.17952L11.2191 21.7257C11.154 21.8217 11.0635 21.8976 10.9578 21.9451C10.852 21.9925 10.7352 22.0098 10.6202 21.9947C10.5054 21.9798 10.3969 21.9331 10.3068 21.86C10.2168 21.787 10.1488 21.6903 10.1105 21.5809L3.45153 2.83679C3.41414 2.73032 3.4061 2.61576 3.42823 2.5051C3.45036 2.39446 3.50185 2.2918 3.57731 2.20789M5.75944 5.58933L10.3811 18.6017L11.1416 11.8593L5.75944 5.58933ZM12.3789 12.0758L11.6067 18.9366L18.1443 9.37004L12.3789 12.0758ZM18.7338 7.70858L14.5216 9.68596L17.3443 6.69649L18.7338 7.70858ZM16.0719 6.21677L5.79016 3.70117L11.8188 10.7214L16.0719 6.21677Z" fill="white"/>
</svg>

<svg xmlns="http://www.w3.org/2000/svg" width="24" height="24" fill="none" viewBox="0 0 24 24">
    <path fill="#fff" fill-rule="evenodd" d="M3.577 2.206a.63.63 0 0 1 .615-.188l13.226 3.238q.12.028.219.102l2.691 1.963a.63.63 0 0 1 .15.859l-9.259 13.546a.625.625 0 0 1-1.108-.145L3.45 2.837a.63.63 0 0 1 .126-.63M5.76 5.59l4.622 13.013.76-6.743zm6.62 6.487-.772 6.86 6.537-9.566zm6.355-4.367-4.212 1.977 2.822-2.99zm-2.662-1.492L5.79 3.7l6.029 7.02z" clip-rule="evenodd"/>
</svg>
